!!!OTL-incipit: Es geht nix ueber die Gemuetlichkeit, eijo, eijo
!!!ARE: Europa, Mitteleuropa, Deutschland, Ober - Franken, Gleismuthhausen
!!!SCT: V0002A
!!!TXL: @@BAR
!!!YEM: Copyright 1995, estate of Helmut Schaffrath.
**kern	**text
*ICvox	*
!! Mixed meters:  2/4; 3/4
*M2/4	*
*k[f#]	*
*G:	*
{8d	Es
=1	=1
8g	geht
8g	nix
16g	Ӯ-
16f#	-ber
16a	die
16g	Ge-
=2	=2
8f#	-mӮt-
8e	-lich-
8e	-keit,
8cc	ei-
=3	=3
4f#	-jo,
8r	.
8d	ei-
=4	=4
4g	-jo.
8r}	.
{8d	Habn
=5	=5
8g	wir
8g	kaa
16.g	Geld,
32f#	so
16a	habns
16g	die
=6	=6
8f#	an-
8e	-dern
8e	Leut,
8cc	ei-
=7	=7
4f#	-jo,
8r	.
8d	ei-
=8	=8
4g	-jo.
8r}	.
!LO:TX:a:t=Walzer auf Silben gesungen.	!
{8d	.
=9	=9
*M3/4	*
4.g	.
8g	.
4g	.
=10	=10
4g	.
4f#	.
4g	.
=11	=11
4.a	.
8e	.
4e	.
=12	=12
4e	.
4r}	.
{4e	.
=13	=13
4.f#	.
8f#	.
4f#	.
=14	=14
4f#	.
4e	.
4f#	.
=15	=15
2g	.
4a	.
=16	=16
4b	.
4r}	.
{4d	.
=17	=17
4.g	.
8g	.
4g	.
=18	=18
4g	.
4f#	.
4g	.
=19	=19
4.a	.
8e	.
4e	.
=20	=20
4e	.
4r}	.
{4e	.
=21	=21
4.f#	.
8f#	.
4f#	.
=22	=22
4f#	.
4e	.
4f#	.
=23	=24
[2.g	.
=24	=24
4g]	.
4.r}	.
==	==
!!!AGN: Geselligkeits - Lied, Gemuetlichkeit
!!!ONB: ESAC (Essen Associative Code) Database: VARIANT
!!!AMT: irregular
!!!AIN: vox
!!!EED: Helmut Schaffrath
!!!EEV: 1.0
!!!GTL: Gemuetlichkeit
!!!source: Heigl, U.; Liertz, M. J.. et al.: Registeer un Beispielsammlung zu den Forschungsexkursionen des Instituts fӮr Volkskunde nach Oberfranken. Maschinenschriftliches Manuskript, MӮnchen 1982.
!!!page: 81
!!!ENC: Anna Maria Matuszewska
!!!EEV: 2025/04/01
*-	*-
